X:2307
T:Ree Ben Juan Tammy
C:Traditional
O:Isle of Man
Z:Clague collection
B:Kiaull Vannin #307 
N:See also KV #405
M:3/4 
L:1/8 
K:D 
d2 dd ce|d2 dd ce|dd fe dc|BB ed cA|d2 dd ce|
d2 dd ce|dd fe dc|BB ed cA|AA AD AA|AD zz||  

